symbols/web/videogame_asset_off/materialsymbolsrounded/videogame_asset_off_wght700gradN25_24px.svg

<svg xmlns="http://www.w3.org/2000/svg" height="24" width="24"><path d="M23.125 15.925q0 .75-.362 1.363-.363.612-.888.987l-2.375-2.35h.6V8.05h-8.475L8.6 5.025h11.5q1.25 0 2.138.875.887.875.887 2.15ZM17.5 11.8q-.575 0-.987-.4-.413-.4-.413-1t.4-1.013q.4-.412 1-.412t1.013.412q.412.413.412 1.013 0 .575-.412.987-.413.413-1.013.413Zm-8.275.175Zm6.35 0Zm-8.65.95H5.8q-.375 0-.65-.275T4.875 12q0-.4.275-.675t.65-.275h1.125V9.925q0-.4.275-.675t.675-.275q.375 0 .65.275t.275.675v1.125h1.125q.4 0 .675.275t.275.675q0 .375-.275.65t-.675.275H8.8v1.125q0 .4-.275.675t-.65.275q-.4 0-.675-.275t-.275-.675Zm-3 6.025q-1.275 0-2.15-.875T.9 15.925V8.05q0-1.25.888-2.138.887-.887 2.087-.887H5.45L8.475 8.05h-4.55v7.875h9.225L1.4 4.15q-.325-.325-.325-.788 0-.462.35-.787.325-.35.788-.35.462 0 .787.35L21.425 21q.325.325.313.788-.013.462-.363.812-.325.325-.775.325t-.8-.325l-3.625-3.65Z"/></svg>

<svg xmlns="http://www.w3.org/2000/svg" height="24" width="24"><path d="M19.8 22.6 16.175 18.95H3.925Q2.65 18.95 1.775 18.075Q0.9 17.2 0.9 15.925V8.05Q0.9 7.15 1.387 6.437Q1.875 5.725 2.6 5.375L1.375 4.15Q1.025 3.825 1.038 3.375Q1.05 2.925 1.4 2.575Q1.725 2.25 2.188 2.25Q2.65 2.25 2.975 2.575L21.425 21.025Q21.775 21.375 21.75 21.812Q21.725 22.25 21.375 22.6Q21.05 22.925 20.6 22.925Q20.15 22.925 19.8 22.6ZM21.875 18.275 19.5 15.925H20.1Q20.1 15.925 20.1 15.925Q20.1 15.925 20.1 15.925V8.05Q20.1 8.05 20.1 8.05Q20.1 8.05 20.1 8.05H11.625L8.6 5.025H20.1Q21.35 5.025 22.238 5.9Q23.125 6.775 23.125 8.05V15.925Q23.125 16.675 22.763 17.288Q22.4 17.9 21.875 18.275ZM3.925 15.925H13.15L10.15 12.925H8.8V14.05Q8.8 14.45 8.525 14.725Q8.25 15 7.875 15Q7.475 15 7.2 14.725Q6.925 14.45 6.925 14.05V12.925H5.8Q5.425 12.925 5.15 12.65Q4.875 12.375 4.875 12Q4.875 11.6 5.15 11.325Q5.425 11.05 5.8 11.05H6.925V9.7L5.275 8.05H3.925Q3.925 8.05 3.925 8.05Q3.925 8.05 3.925 8.05V15.925Q3.925 15.925 3.925 15.925Q3.925 15.925 3.925 15.925ZM17.5 11.8Q16.925 11.8 16.513 11.4Q16.1 11 16.1 10.4Q16.1 9.8 16.5 9.387Q16.9 8.975 17.5 8.975Q18.1 8.975 18.513 9.387Q18.925 9.8 18.925 10.4Q18.925 10.975 18.513 11.387Q18.1 11.8 17.5 11.8ZM8.8 11.05ZM9.225 11.975Q9.225 11.975 9.225 11.975Q9.225 11.975 9.225 11.975Q9.225 11.975 9.225 11.975Q9.225 11.975 9.225 11.975ZM15.575 11.975Q15.575 11.975 15.575 11.975Q15.575 11.975 15.575 11.975Q15.575 11.975 15.575 11.975Q15.575 11.975 15.575 11.975Z"/></svg>
